X:33
T:Mummer's March
R:march
H:On the L\'a Lugh recording it is played very slowly, and the E in bars
H:2 and 4 is held longer, and also the A3 and F3 in bars 6, 8, 10 and 14
D:L\'a Lugh
Z:id:hn-march-33
M:6/8
L:1/8
K:Em
G2B A2B | G2B F2E | G2B A2c | BGE F2E ||
BGE EDE | BGE A3 | BGE EDE | cBA F3 ||
EGB e2B | cBA F3 | EGB e2B | cBA Bcd | e2^c d2B | =cBA F3 ||

